assets/logo.svg

<svg viewBox="0 0 229 53" fill="none" xmlns="http://www.w3.org/2000/svg">
  <path d="M72.9797 4.98888V25.1757H68.808V4.98888h-6.6439V1.28583h17.4595v3.70305h-6.6439ZM94.7398 25.1757l-4.1718-9.8491h-4.4292v9.8491H81.967V1.28583h10.1719c4.0687 0 7.3134 2.59728 7.3134 6.86608 0 3.06019-1.7769 5.45169-4.7898 6.55749l4.7383 10.4663h-4.661ZM91.4951 4.96317h-5.3563v6.66033h5.2275c2.2404 0 3.8627-1.2343 3.8627-3.47159 0-2.23726-1.5193-3.18874-3.7339-3.18874ZM117.633 25.1757l-1.88-5.2974h-8.884l-1.932 5.2974h-4.377l9.064-23.88987h3.374l9.038 23.88987h-4.403Zm-4.713-13.655-1.571-4.91173h-.103l-1.545 4.80883-1.622 4.9374h6.438l-1.597-4.8345ZM132.903 1.28583c3.58 0 6.644 1.3115 8.138 4.42309.85 1.74867.927 4.16594.927 7.09748 0 3.3431-.077 5.7604-.85 7.6119-1.571 3.6002-4.944 4.7317-8.807 4.7317h-8.112V1.28583h8.704Zm-4.532 20.10967h4.095c4.017 0 5.356-2.3401 5.356-5.9403v-4.4488c0-4.26885-1.931-5.94037-5.434-5.94037h-4.017V21.3955ZM145.702 25.1757V1.28583h16.017v3.7802h-11.871v6.24887h10.12v3.6517h-10.12v6.4546h11.871v3.7802h-16.017v-.0257ZM177.016 5.06603v6.45467h10.12v3.6002h-10.12v10.0548h-4.172V1.28583h16.017v3.7802h-11.845ZM208.02 10.1835v6.1203c0 5.5546-3.502 9.1033-8.935 9.1033-5.975 0-8.91-4.2173-8.91-9.1033v-6.1203c0-4.80888 2.91-9.05196 8.91-9.05196 5.51-.02572 8.935 3.83163 8.935 9.05196Zm-13.648-.20577v6.42887c0 2.5973 1.519 5.1175 4.713 5.1175 2.91 0 4.712-2.2373 4.712-5.1175V9.97773c0-2.70015-1.751-4.93741-4.712-4.93741-3.194-.02572-4.713 2.41727-4.713 4.93741ZM224.244 25.1757l-5.228-8.8205-5.201 8.8205h-4.687l7.725-12.215-7.262-11.67487h4.713l4.712 8.22901 4.764-8.22901h4.687l-7.262 11.67487 7.726 12.215h-4.687ZM72.2072 47.9855l-1.0558-2.9573h-4.97l-1.0816 2.9573h-2.4464l5.0731-13.4236h1.8798l5.0731 13.4236h-2.4722Zm-2.6524-7.689-.8755-2.7516h-.0515l-.8756 2.7002-.9013 2.7772h3.6052l-.9013-2.7258ZM77.821 38.4193v5.6831c0 1.3115.4893 1.9544 1.7769 1.9544 1.03 0 1.8283-.72 1.8283-1.9544v-5.6831h2.1889v9.5405h-2.1889v-.9515h-.0515c-.5665.72-1.5708 1.0543-2.4206 1.0543-1.9829 0-3.2704-1.08-3.2704-3.3944v-6.2746h2.1373v.0257ZM88.7912 47.9855c-1.4163 0-2.4464-.8743-2.4464-2.3915v-5.4003h-1.1073v-1.7744h1.1073v-2.4944h2.1116v2.4944h1.4679v1.7744h-1.4421v4.8088c0 .6686.2317 1.08.8755 1.08h.7211v1.903h-1.2876ZM98.9115 39.9107c.4893.7458.7211 1.8516.6953 3.1374 0 1.44-.206 2.4687-.6438 3.2401-.721 1.183-2.0858 1.8001-3.5794 1.8001-1.4163 0-2.6009-.4886-3.2962-1.4915-.5408-.7972-.7725-1.9544-.7468-3.3944 0-1.0287.1288-1.9802.4893-2.7002.6438-1.4144 2.0601-2.1858 3.8112-2.1858 1.3648 0 2.5751.5657 3.2704 1.5943Zm-5.0988 1.4401c-.2317.4886-.309 1.1315-.3347 1.8773 0 .7457.0515 1.3629.2832 1.8258.2833.6429.8756 1.0543 1.6224 1.0543.824 0 1.4936-.4371 1.8026-1.3629.1287-.36.1802-.8743.1802-1.6972 0-.7201-.0772-1.2858-.2575-1.6716-.2832-.7457-.9013-1.1057-1.6223-1.1057-.7211 0-1.3648.4114-1.6739 1.08ZM104.397 47.9855c-1.417 0-2.447-.8743-2.447-2.3915v-5.4003h-1.107v-1.7744h1.107v-2.4944h2.112v2.4944h1.468v1.7744h-1.442v4.8088c0 .6686.231 1.08.875 1.08h.721v1.903h-1.287ZM109.521 42.2509v5.7346h-2.189v-9.5663h2.138v1.1315h.077c.566-.8229 1.365-1.2343 2.317-1.2343.721 0 1.288.1286 1.803.4886l-.798 1.9544c-.541-.3343-1.056-.4372-1.571-.4372-1.03.0257-1.777.6943-1.777 1.9287ZM121.676 41.5051v6.4804h-2.189v-.8486l-.026-.0258c-.515.6686-1.519.9515-2.498.9515-2.034 0-3.296-1.0286-3.296-2.8801 0-1.543 1.107-2.8802 3.245-2.8802h2.575v-.6943c0-.7201-.412-1.3629-1.88-1.3629-1.03 0-1.725.2571-2.266.7971l-1.159-1.4658c.927-.9257 2.215-1.26 3.554-1.26 2.137.0257 3.94.72 3.94 3.1887Zm-4.249 4.706c.978 0 1.931-.3086 2.034-1.3372.026-.1543.026-.3086.026-.9001h-2.215c-1.107 0-1.545.4629-1.545 1.0544 0 .5914.438 1.1829 1.7 1.1829ZM129.169 47.9855v-.8744l-.025-.0257c-.644.72-1.571 1.0286-2.395 1.0286-3.039 0-3.399-2.5972-3.399-4.9374 0-2.1858.695-4.8088 3.631-4.8088.824 0 1.673.3086 2.163.9258l.025-.0258v-5.2459h2.189v13.9893h-2.189v-.0257Zm-1.751-7.5862c-1.674 0-1.828 1.6458-1.828 2.9316 0 1.1829.18 2.7002 1.803 2.7002 1.622 0 1.802-1.6716 1.802-2.8288-.026-1.2086-.18-2.803-1.777-2.803ZM133.444 36.5677v-2.0058h2.189v2.0058h-2.189Zm0 11.4178V38.445h2.189v9.5405h-2.189ZM143.59 47.9855V42.328c0-1.2086-.54-1.9287-1.751-1.9287-1.03 0-1.828.7201-1.828 1.9287v5.6575h-2.189v-9.5663h2.189v1.0029h.026c.618-.6943 1.622-1.08 2.498-1.08 1.957 0 3.244 1.1315 3.244 3.3687v6.2747h-2.189ZM155.513 38.4192v9.1548c0 3.2144-1.751 4.2945-4.275 4.2945-.952 0-2.343-.2572-3.321-1.1572l1.133-1.5944c.643.4629 1.416.7715 2.343.7715 1.185 0 1.957-.6943 1.957-1.9544v-.8743h-.026c-.618.72-1.493 1.0286-2.292 1.0286-2.961 0-3.502-2.4944-3.502-4.6545 0-2.263.438-5.0917 3.58-5.0917.824 0 1.674.2828 2.214.9515h.052v-.8744h2.137Zm-3.94 7.6119c1.597 0 1.803-1.5944 1.803-2.8031 0-1.1057-.103-2.8287-1.777-2.8287s-1.828 1.5687-1.828 2.8287c-.026 1.363.128 2.8031 1.802 2.8031ZM165.685 48.0883c-1.416 0-2.833-.2828-4.146-1.44l1.185-1.5687c.901.8229 1.931 1.1315 3.064 1.1315.927 0 1.648-.4115 1.648-1.1058 0-.6429-.515-.9515-1.699-1.08-1.7-.1801-3.631-.4886-3.631-2.7259 0-1.9544 1.648-2.983 3.579-2.983 1.442 0 2.627.2828 3.657 1.08l-1.03 1.6458c-.902-.5914-1.803-.8229-2.575-.8229-1.03 0-1.546.4629-1.546 1.0287 0 .6429.696.8743 2.267 1.0286 1.57.18 3.116.7457 3.116 2.7516 0 1.9544-1.752 3.0601-3.889 3.0601ZM174.827 49.9142c-.541 1.4658-1.623 1.9286-2.781 1.9286h-.799V50.017h.593c.566 0 .952-.4629 1.158-1.0029l.49-1.4915-3.528-9.1033h2.343l1.236 3.4973.953 3.0087h.077l.953-2.9573 1.21-3.5487h2.292l-4.197 11.4949ZM183.273 48.0883c-1.416 0-2.832-.2828-4.146-1.44l1.185-1.5687c.901.8229 1.931 1.1315 3.064 1.1315.927 0 1.648-.4115 1.648-1.1058 0-.6429-.515-.9515-1.699-1.08-1.7-.1801-3.631-.4886-3.631-2.7259 0-1.9544 1.648-2.983 3.579-2.983 1.442 0 2.627.2828 3.657 1.08l-1.03 1.6458c-.901-.5914-1.803-.8229-2.575-.8229-1.03 0-1.545.4629-1.545 1.0287 0 .6429.695.8743 2.266 1.0286 1.571.18 3.116.7457 3.116 2.7516 0 1.9544-1.751 3.0601-3.889 3.0601ZM191.72 47.9855c-1.416 0-2.447-.8743-2.447-2.3915v-5.4003h-1.107v-1.7744h1.107v-2.4944h2.112v2.4944h1.468v1.7744h-1.442v4.8088c0 .6686.232 1.08.875 1.08h.721v1.903h-1.287ZM196.407 43.8196c0 1.1829.618 2.2887 2.034 2.2887.566 0 1.545-.2572 2.266-.9001.464.5143.798 1.0029 1.262 1.5173-1.056.9772-2.421 1.3372-3.605 1.3372-2.035 0-4.198-.9515-4.198-4.8603 0-3.6773 2.189-4.9117 4.172-4.9117 2.575 0 4.12 1.8001 4.12 4.5774v.9515h-6.051Zm.025-1.543h3.657c-.077-1.2857-.824-1.9801-1.803-1.9801-1.004 0-1.725.7458-1.854 1.9801ZM215.746 47.9855v-5.6832c0-1.2086-.567-1.9544-1.803-1.9544-1.004 0-1.802.7972-1.802 1.9544v5.6832h-2.189v-5.6832c0-1.2086-.592-1.9544-1.803-1.9544-1.004 0-1.802.7972-1.802 1.9544v5.6832h-2.189v-9.5406h2.189v1.0287c.025 0 .051.0257.051.0257.567-.72 1.597-1.1315 2.55-1.1315 1.184 0 2.06.4372 2.652 1.3629.798-.8486 1.854-1.3629 3.039-1.3629 1.931 0 3.27 1.1829 3.27 3.343v6.2747h-2.163ZM223.343 48.0883c-1.417 0-2.833-.2828-4.146-1.44l1.184-1.5687c.902.8229 1.932 1.1315 3.065 1.1315.927 0 1.648-.4115 1.648-1.1058 0-.6429-.515-.9515-1.7-1.08-1.699-.1801-3.631-.4886-3.631-2.7259 0-1.9544 1.648-2.983 3.58-2.983 1.442 0 2.626.2828 3.656 1.08l-1.03 1.6458c-.901-.5914-1.802-.8229-2.575-.8229-1.03 0-1.545.4629-1.545 1.0287 0 .6429.695.8743 2.266 1.0286 1.571.18 3.116.7457 3.116 2.7516 0 1.9544-1.751 3.0601-3.888 3.0601Z" fill="#fff"/>
  <path d="M52.7905 10.8777V0h-9.425L26.3953 16.9466 9.39929 0H0v10.8777l18.9788 18.9525h14.8329l18.9788-18.9525Z" fill="#F86A2E"/>
  <path d="M52.7905 34.0476V23.1699h-9.425L26.3953 40.1165 9.39929 23.1699H0v10.8777L18.9788 53h14.8329l18.9788-18.9524Z" fill="#fff"/>
</svg>

<svg width="229" height="53" viewBox="0 0 229 53" fill="none" xmlns="http://www.w3.org/2000/svg">
<path d="M72.9797 4.98888V25.1757H68.808V4.98888H62.1641V1.28583H79.6236V4.98888H72.9797Z" fill="white"/>
<path d="M94.7398 25.1757L90.568 15.3266H86.1388V25.1757H81.967V1.28583H92.1389C96.2076 1.28583 99.4523 3.88311 99.4523 8.15191C99.4523 11.2121 97.6754 13.6036 94.6625 14.7094L99.4008 25.1757H94.7398ZM91.4951 4.96317H86.1388V11.6235H91.3663C93.6067 11.6235 95.229 10.3892 95.229 8.15191C95.229 5.91465 93.7097 4.96317 91.4951 4.96317Z" fill="white"/>
<path d="M117.633 25.1757L115.753 19.8783H106.869L104.937 25.1757H100.56L109.624 1.28583H112.998L122.036 25.1757H117.633ZM112.92 11.5207L111.349 6.60897H111.246L109.701 11.4178L108.079 16.3552H114.517L112.92 11.5207Z" fill="white"/>
<path d="M132.903 1.28583C136.483 1.28583 139.547 2.59733 141.041 5.70892C141.891 7.45759 141.968 9.87486 141.968 12.8064C141.968 16.1495 141.891 18.5668 141.118 20.4183C139.547 24.0185 136.174 25.15 132.311 25.15H124.199V1.28583H132.903ZM128.371 21.3955H132.466C136.483 21.3955 137.822 19.0554 137.822 15.4552V11.0064C137.822 6.73755 135.891 5.06603 132.388 5.06603H128.371V21.3955Z" fill="white"/>
<path d="M145.702 25.1757V1.28583H161.719V5.06603H149.848V11.3149H159.968V14.9666H149.848V21.4212H161.719V25.2014H145.702V25.1757Z" fill="white"/>
<path d="M177.016 5.06603V11.5207H187.136V15.1209H177.016V25.1757H172.844V1.28583H188.861V5.06603H177.016Z" fill="white"/>
<path d="M208.02 10.1835V16.3038C208.02 21.8584 204.518 25.4071 199.085 25.4071C193.11 25.4071 190.175 21.1898 190.175 16.3038V10.1835C190.175 5.37462 193.085 1.13154 199.085 1.13154C204.595 1.10582 208.02 4.96317 208.02 10.1835ZM194.372 9.97773V16.4066C194.372 19.0039 195.891 21.5241 199.085 21.5241C201.995 21.5241 203.797 19.2868 203.797 16.4066V9.97773C203.797 7.27758 202.046 5.04032 199.085 5.04032C195.891 5.0146 194.372 7.45759 194.372 9.97773Z" fill="white"/>
<path d="M224.244 25.1757L219.016 16.3552L213.815 25.1757H209.128L216.853 12.9607L209.591 1.28583H214.304L219.016 9.51484L223.78 1.28583H228.467L221.205 12.9607L228.931 25.1757H224.244Z" fill="white"/>
<path d="M72.2072 47.9855L71.1514 45.0282H66.1814L65.0998 47.9855H62.6534L67.7265 34.5619H69.6063L74.6794 47.9855H72.2072ZM69.5548 40.2965L68.6793 37.5449H68.6278L67.7522 40.2451L66.8509 43.0223H70.4561L69.5548 40.2965Z" fill="white"/>
<path d="M77.821 38.4193V44.1024C77.821 45.4139 78.3103 46.0568 79.5979 46.0568C80.6279 46.0568 81.4262 45.3368 81.4262 44.1024V38.4193H83.6151V47.9598H81.4262V47.0083H81.3747C80.8082 47.7283 79.8039 48.0626 78.9541 48.0626C76.9712 48.0626 75.6837 46.9826 75.6837 44.6682V38.3936H77.821V38.4193Z" fill="white"/>
<path d="M88.7912 47.9855C87.3749 47.9855 86.3448 47.1112 86.3448 45.594V40.1937H85.2375V38.4193H86.3448V35.9249H88.4564V38.4193H89.9243V40.1937H88.4822V45.0025C88.4822 45.6711 88.7139 46.0825 89.3577 46.0825H90.0788V47.9855H88.7912Z" fill="white"/>
<path d="M98.9115 39.9107C99.4008 40.6565 99.6326 41.7623 99.6068 43.0481C99.6068 44.4881 99.4008 45.5168 98.963 46.2882C98.242 47.4712 96.8772 48.0883 95.3836 48.0883C93.9673 48.0883 92.7827 47.5997 92.0874 46.5968C91.5466 45.7996 91.3149 44.6424 91.3406 43.2024C91.3406 42.1737 91.4694 41.2222 91.8299 40.5022C92.4737 39.0878 93.89 38.3164 95.6411 38.3164C97.0059 38.3164 98.2162 38.8821 98.9115 39.9107ZM93.8127 41.3508C93.581 41.8394 93.5037 42.4823 93.478 43.2281C93.478 43.9738 93.5295 44.591 93.7612 45.0539C94.0445 45.6968 94.6368 46.1082 95.3836 46.1082C96.2076 46.1082 96.8772 45.6711 97.1862 44.7453C97.3149 44.3853 97.3664 43.871 97.3664 43.0481C97.3664 42.328 97.2892 41.7623 97.1089 41.3765C96.8257 40.6308 96.2076 40.2708 95.4866 40.2708C94.7655 40.2708 94.1218 40.6822 93.8127 41.3508Z" fill="white"/>
<path d="M104.397 47.9855C102.98 47.9855 101.95 47.1112 101.95 45.594V40.1937H100.843V38.4193H101.95V35.9249H104.062V38.4193H105.53V40.1937H104.088V45.0025C104.088 45.6711 104.319 46.0825 104.963 46.0825H105.684V47.9855H104.397Z" fill="white"/>
<path d="M109.521 42.2509V47.9855H107.332V38.4192H109.47V39.5507H109.547C110.113 38.7278 110.912 38.3164 111.864 38.3164C112.585 38.3164 113.152 38.445 113.667 38.805L112.869 40.7594C112.328 40.4251 111.813 40.3222 111.298 40.3222C110.268 40.3479 109.521 41.0165 109.521 42.2509Z" fill="white"/>
<path d="M121.676 41.5051V47.9855H119.487V47.1369L119.461 47.1111C118.946 47.7797 117.942 48.0626 116.963 48.0626C114.929 48.0626 113.667 47.034 113.667 45.1825C113.667 43.6395 114.774 42.3023 116.912 42.3023H119.487V41.608C119.487 40.8879 119.075 40.2451 117.607 40.2451C116.577 40.2451 115.882 40.5022 115.341 41.0422L114.182 39.5764C115.109 38.6507 116.397 38.3164 117.736 38.3164C119.873 38.3421 121.676 39.0364 121.676 41.5051ZM117.427 46.2111C118.405 46.2111 119.358 45.9025 119.461 44.8739C119.487 44.7196 119.487 44.5653 119.487 43.9738H117.272C116.165 43.9738 115.727 44.4367 115.727 45.0282C115.727 45.6196 116.165 46.2111 117.427 46.2111Z" fill="white"/>
<path d="M129.169 47.9855V47.1111L129.144 47.0854C128.5 47.8054 127.573 48.114 126.749 48.114C123.71 48.114 123.35 45.5168 123.35 43.1766C123.35 40.9908 124.045 38.3678 126.981 38.3678C127.805 38.3678 128.654 38.6764 129.144 39.2936L129.169 39.2678V34.0219H131.358V48.0112H129.169V47.9855ZM127.418 40.3993C125.744 40.3993 125.59 42.0451 125.59 43.3309C125.59 44.5138 125.77 46.0311 127.393 46.0311C129.015 46.0311 129.195 44.3595 129.195 43.2023C129.169 41.9937 129.015 40.3993 127.418 40.3993Z" fill="white"/>
<path d="M133.444 36.5677V34.5619H135.633V36.5677H133.444ZM133.444 47.9855V38.445H135.633V47.9855H133.444Z" fill="white"/>
<path d="M143.59 47.9855V42.328C143.59 41.1194 143.05 40.3993 141.839 40.3993C140.809 40.3993 140.011 41.1194 140.011 42.328V47.9855H137.822V38.4192H140.011V39.4221H140.037C140.655 38.7278 141.659 38.3421 142.535 38.3421C144.492 38.3421 145.779 39.4736 145.779 41.7108V47.9855H143.59Z" fill="white"/>
<path d="M155.513 38.4192V47.574C155.513 50.7884 153.762 51.8685 151.238 51.8685C150.286 51.8685 148.895 51.6113 147.917 50.7113L149.05 49.1169C149.693 49.5798 150.466 49.8884 151.393 49.8884C152.578 49.8884 153.35 49.1941 153.35 47.934V47.0597H153.324C152.706 47.7797 151.831 48.0883 151.032 48.0883C148.071 48.0883 147.53 45.5939 147.53 43.4338C147.53 41.1708 147.968 38.3421 151.11 38.3421C151.934 38.3421 152.784 38.6249 153.324 39.2936H153.376V38.4192H155.513ZM151.573 46.0311C153.17 46.0311 153.376 44.4367 153.376 43.228C153.376 42.1223 153.273 40.3993 151.599 40.3993C149.925 40.3993 149.771 41.968 149.771 43.228C149.745 44.591 149.899 46.0311 151.573 46.0311Z" fill="white"/>
<path d="M165.685 48.0883C164.269 48.0883 162.852 47.8055 161.539 46.6483L162.724 45.0796C163.625 45.9025 164.655 46.2111 165.788 46.2111C166.715 46.2111 167.436 45.7996 167.436 45.1053C167.436 44.4624 166.921 44.1538 165.737 44.0253C164.037 43.8452 162.106 43.5367 162.106 41.2994C162.106 39.345 163.754 38.3164 165.685 38.3164C167.127 38.3164 168.312 38.5992 169.342 39.3964L168.312 41.0422C167.41 40.4508 166.509 40.2193 165.737 40.2193C164.707 40.2193 164.191 40.6822 164.191 41.248C164.191 41.8909 164.887 42.1223 166.458 42.2766C168.028 42.4566 169.574 43.0223 169.574 45.0282C169.574 46.9826 167.822 48.0883 165.685 48.0883Z" fill="white"/>
<path d="M174.827 49.9142C174.286 51.38 173.204 51.8428 172.046 51.8428H171.247V50.017H171.84C172.406 50.017 172.792 49.5541 172.998 49.0141L173.488 47.5226L169.96 38.4193H172.303L173.539 41.9166L174.492 44.9253H174.569L175.522 41.968L176.732 38.4193H179.024L174.827 49.9142Z" fill="white"/>
<path d="M183.273 48.0883C181.857 48.0883 180.441 47.8055 179.127 46.6483L180.312 45.0796C181.213 45.9025 182.243 46.2111 183.376 46.2111C184.303 46.2111 185.024 45.7996 185.024 45.1053C185.024 44.4624 184.509 44.1538 183.325 44.0253C181.625 43.8452 179.694 43.5367 179.694 41.2994C179.694 39.345 181.342 38.3164 183.273 38.3164C184.715 38.3164 185.9 38.5992 186.93 39.3964L185.9 41.0422C184.999 40.4508 184.097 40.2193 183.325 40.2193C182.295 40.2193 181.78 40.6822 181.78 41.248C181.78 41.8909 182.475 42.1223 184.046 42.2766C185.617 42.4566 187.162 43.0223 187.162 45.0282C187.162 46.9826 185.411 48.0883 183.273 48.0883Z" fill="white"/>
<path d="M191.72 47.9855C190.304 47.9855 189.273 47.1112 189.273 45.594V40.1937H188.166V38.4193H189.273V35.9249H191.385V38.4193H192.853V40.1937H191.411V45.0025C191.411 45.6711 191.643 46.0825 192.286 46.0825H193.007V47.9855H191.72Z" fill="white"/>
<path d="M196.407 43.8196C196.407 45.0025 197.025 46.1083 198.441 46.1083C199.007 46.1083 199.986 45.8511 200.707 45.2082C201.171 45.7225 201.505 46.2111 201.969 46.7255C200.913 47.7027 199.548 48.0627 198.364 48.0627C196.329 48.0627 194.166 47.1112 194.166 43.2024C194.166 39.5251 196.355 38.2907 198.338 38.2907C200.913 38.2907 202.458 40.0908 202.458 42.8681V43.8196H196.407ZM196.432 42.2766H200.089C200.012 40.9909 199.265 40.2965 198.286 40.2965C197.282 40.2965 196.561 41.0423 196.432 42.2766Z" fill="white"/>
<path d="M215.746 47.9855V42.3023C215.746 41.0937 215.179 40.3479 213.943 40.3479C212.939 40.3479 212.141 41.1451 212.141 42.3023V47.9855H209.952V42.3023C209.952 41.0937 209.36 40.3479 208.149 40.3479C207.145 40.3479 206.347 41.1451 206.347 42.3023V47.9855H204.158V38.4449H206.347V39.4736C206.372 39.4736 206.398 39.4993 206.398 39.4993C206.965 38.7793 207.995 38.3678 208.948 38.3678C210.132 38.3678 211.008 38.805 211.6 39.7307C212.398 38.8821 213.454 38.3678 214.639 38.3678C216.57 38.3678 217.909 39.5507 217.909 41.7108V47.9855H215.746Z" fill="white"/>
<path d="M223.343 48.0883C221.926 48.0883 220.51 47.8055 219.197 46.6483L220.381 45.0796C221.283 45.9025 222.313 46.2111 223.446 46.2111C224.373 46.2111 225.094 45.7996 225.094 45.1053C225.094 44.4624 224.579 44.1538 223.394 44.0253C221.695 43.8452 219.763 43.5367 219.763 41.2994C219.763 39.345 221.411 38.3164 223.343 38.3164C224.785 38.3164 225.969 38.5992 226.999 39.3964L225.969 41.0422C225.068 40.4508 224.167 40.2193 223.394 40.2193C222.364 40.2193 221.849 40.6822 221.849 41.248C221.849 41.8909 222.544 42.1223 224.115 42.2766C225.686 42.4566 227.231 43.0223 227.231 45.0282C227.231 46.9826 225.48 48.0883 223.343 48.0883Z" fill="white"/>
<path d="M52.7905 10.8777V0H43.3655L26.3953 16.9466L9.39929 0H0V10.8777L18.9788 29.8302H33.8117L52.7905 10.8777Z" fill="#F86A2E"/>
<path d="M52.7905 34.0476V23.1699H43.3655L26.3953 40.1165L9.39929 23.1699H0V34.0476L18.9788 53H33.8117L52.7905 34.0476Z" fill="white"/>
</svg>
